X: 4146
T: HIGHLAND RANT
R: Reel.
%R: reel
B: James Kerr "Merry Melodies" v.4 p.18 #146
Z: 2016 John Chambers <jc:trillian.mit.edu>
M: C|
L: 1/8
K: Am
|:\
e>A A/A/A (ed)Bd | e>A A/A/A (dB)GB |\
e>A A/A/A (e^f)ga | gegd BGdB ::\
A/A/A e2 A/A/A a2 |
A/A/A e2 gdBG |\
[1 A/A/A e2 A/A/A a2 | gegd BGdB :|\
[2 AcBd cedf | edcB A2a2 |]

%%sep 1 1 500
%%sep 1 1 500

